X:406
%%etbk:tnset id:119,pos:2,rep:3x,ant:
%%etbk:wsite http://www.thesession.org/tunes/display/1426
%%etbk:pldat 2016-07-26T15:31,2014-09-25T18:11,2013-05-21T15:45
T: Downey's
Z: Piano Box Version by Martin Fleischmann
H: Created 2013-02-19 /  Last Modified 2013-02-19
M: 2/4
L: 1/8
R: polka
K: Edor
|: "em"!1!E2 !2!F!4!A | !2!B!5!e ed | !2!B!4!d/B/ !1!A!3!F | "D"!2!EF !1!D2 | "em"!1!E>F G!4!A | !2!B!5!e ed | "bm"!2!B!4!d/B/ !1!A!2!F | "em"{A}!2!F!1!E E2:|
|: "em"!2!B!5!e !2!ef | "bm"!5!af e!1!d | "em"!1!B!2!e ef | "D"!5!af !1!d2 | "em"!1!B!2!e ef | "bm"!5!af e!1!d | !2!B!4!d/B/ !1!A!2!F | "em"{A}!2!F!1!E E2:|


